!!! OTL: Berkowitz267
!!! Chapter: 1
!!! Section: II
!!! Page: 62
!!! Mode: 
!!! Encoder: DJB
**kern
*staff1
*I"Piano
=1-
*clefF4
*k[b-e-a-]
*c:
*M3/4
8BBn\L
8F\J
4.E-\
8C/
=2
8A-\L
8D\J
4.G\
8C/
=3
8D\L
8E-\J
8F\L
8Bn\J
8d\L
8c\J
=4
2G\
8F\L
8G\J
=5
8A-\L
8D\J
8G\L
[8C\J
4C/]
=6
8F\L
8BBn\J
2E-\
=7
8D\L
8F\J
8G\L
8C\J
8D\L
8E-\J
=8
2.C/
==
*-
